packages/foundations/assets/icons/functional/images/security/shield_check_14.svg

<svg width="14" height="14" viewBox="0 0 14 14" fill="none" xmlns="http://www.w3.org/2000/svg">
<g clip-path="url(#clip0_187_312)">
<path fill-rule="evenodd" clip-rule="evenodd" d="M7.00005 1.39999C7.08045 1.39999 7.16145 1.41889 7.23645 1.45669L11.0182 3.40899C11.1286 3.46429 11.2 3.59099 11.2 3.73099V5.59999C11.2 8.74859 9.84405 11.0964 7.13325 12.5664C7.09185 12.5888 7.04565 12.6 7.00005 12.6C6.95445 12.6 6.90825 12.5888 6.86685 12.5664C4.15605 11.0964 2.80005 8.74859 2.80005 5.59999V3.73099C2.80005 3.59099 2.87145 3.46429 2.98185 3.40899L6.76365 1.45669C6.83865 1.41889 6.91965 1.39999 7.00005 1.39999ZM8.16314 5.10526L6.43471 6.71028L5.83695 6.15521C5.54222 5.88152 5.06583 5.88152 4.7711 6.15521C4.47637 6.42889 4.47637 6.87127 4.7711 7.14496L5.90178 8.1949C6.04877 8.3314 6.24174 8.39999 6.43471 8.39999C6.62768 8.39999 6.82065 8.3314 6.96764 8.1949L9.229 6.09501C9.52373 5.82132 9.52373 5.37894 9.229 5.10526C8.93427 4.83157 8.45788 4.83157 8.16314 5.10526Z" fill="#1A1C1F"/>
</g>
<defs>
<clipPath id="clip0_187_312">
<rect width="14" height="14" fill="white"/>
</clipPath>
</defs>
</svg>

<svg xmlns="http://www.w3.org/2000/svg" width="14" height="14" fill="none"><g clip-path="url(#a)"><path fill="#1A1C1F" fill-rule="evenodd" d="M7 1.4q.122 0 .236.057l3.782 1.952c.11.055.182.182.182.322V5.6c0 3.149-1.356 5.496-4.067 6.966a.28.28 0 0 1-.266 0C4.156 11.096 2.8 8.75 2.8 5.6V3.731c0-.14.071-.267.182-.322l3.782-1.952A.5.5 0 0 1 7 1.4m1.163 3.705L6.435 6.71l-.598-.555a.794.794 0 0 0-1.066 0 .664.664 0 0 0 0 .99l1.13 1.05c.148.136.34.205.534.205a.78.78 0 0 0 .533-.205l2.261-2.1a.664.664 0 0 0 0-.99.794.794 0 0 0-1.066 0" clip-rule="evenodd"/></g><defs><clipPath id="a"><path fill="#fff" d="M0 0h14v14H0z"/></clipPath></defs></svg>
